!!!OTL: Minnelied
!!!ARE: Europa, Mitteleuropa, Deutschland
!!!SCT: A0127
!!!YEM: Copyright 1995, estate of Helmut Schaffrath.
**kern
*ICvox
*Ivox
*M4/2
*k[b-]
*F:
{2f
=1
2f
2f
2a
2a
=2
2dd
2dd
2cc}
{2cc
=3
2a
2g
2f}
{2f
=4
2f
2f
2a
2a
=5
2dd
2dd
2cc}
{2cc
=6
2a
2g
1f}
=7
{1e
2.f
4f
=8
2a
2a
2g}
{2g
=9
1d
1c}
=10
{2a
2g
2a
2b-
=11
2cc
2dd
2cc}
{2b-
=12
2a
2f
2e
2f
=13
1a
1g
=14
1.f}
==
!!!AGN: Romanze, Ballade, Lied
!! Locheimer Liederbuch (Arnolds Ausgabe, Leipzig 1867 No. 39.
!!!ONB: ESAC (Essen Associative Code) Database: ALTDEU
!!!AMT: simple quadruple
!!!AIN: vox
!!!EED: Helmut Schaffrath
!!!EEV: 1.0
*-
